Obsidian/actions/24s/kstars_indi.svg

<svg height="24" viewBox="0 0 24 24" width="24" xmlns="http://www.w3.org/2000/svg"><path d="m2 0 2.8125 16h5.4375l3.75-16zm1.5 2c.27614 0 .5.2239.5.5s-.22386.5-.5.5-.5-.2239-.5-.5.22386-.5.5-.5zm7 0c.27614 0 .5.2239.5.5s-.22386.5-.5.5-.5-.2239-.5-.5.22386-.5.5-.5zm-2.5957031 2.0019531c1.5402-.05 2.8674121 1.0759157 3.0703121 2.6035157.21827 1.6429-.937028 3.1516406-2.5800778 3.3691406-1.6429.2182996-3.1516406-.9369781-3.3691406-2.5800782-.21827-1.6429.9370281-3.1516406 2.5800782-3.3691406.09916-.013.1988881-.0214375.2988281-.0234375zm1.5957031 6.9999999c.27614 0 .5.2239.5.5s-.22386.5-.5.5-.5-.2239-.5-.5.22386-.5.5-.5zm-3 2c.27614 0 .5.2239.5.5s-.22386.5-.5.5-.5-.2239-.5-.5.22386-.5.5-.5z" fill="#bebebe" transform="translate(4 4)"/></svg>

<svg xmlns="http://www.w3.org/2000/svg" width="24" height="24" viewBox="0 0 24 24">
 <defs>
  <style id="current-color-scheme" type="text/css">
   .ColorScheme-Text { color:#bebebe; } .ColorScheme-Highlight { color:#4285f4; }
  </style>
 </defs>
 <path style="fill:currentColor" class="ColorScheme-Text" d="M 2 0 L 4.8125 16 L 10.25 16 L 14 0 L 2 0 z M 3.5 2 C 3.77614 2 4 2.2239 4 2.5 C 4 2.7761 3.77614 3 3.5 3 C 3.22386 3 3 2.7761 3 2.5 C 3 2.2239 3.22386 2 3.5 2 z M 10.5 2 C 10.77614 2 11 2.2239 11 2.5 C 11 2.7761 10.77614 3 10.5 3 C 10.22386 3 10 2.7761 10 2.5 C 10 2.2239 10.22386 2 10.5 2 z M 7.9042969 4.0019531 C 9.4444969 3.9519531 10.771709 5.0778688 10.974609 6.6054688 C 11.192879 8.2483688 10.037581 9.7571094 8.3945312 9.9746094 C 6.7516312 10.192909 5.2428906 9.0376313 5.0253906 7.3945312 C 4.8071206 5.7516312 5.9624187 4.2428906 7.6054688 4.0253906 C 7.7046288 4.0123906 7.8043569 4.0039531 7.9042969 4.0019531 z M 9.5 11.001953 C 9.77614 11.001953 10 11.225853 10 11.501953 C 10 11.778053 9.77614 12.001953 9.5 12.001953 C 9.22386 12.001953 9 11.778053 9 11.501953 C 9 11.225853 9.22386 11.001953 9.5 11.001953 z M 6.5 13.001953 C 6.77614 13.001953 7 13.225853 7 13.501953 C 7 13.778053 6.77614 14.001953 6.5 14.001953 C 6.22386 14.001953 6 13.778053 6 13.501953 C 6 13.225853 6.22386 13.001953 6.5 13.001953 z" transform="translate(4 4)"/>
</svg>
